www/assets/icons/markunread_mailbox.svg

<svg xmlns="http://www.w3.org/2000/svg" width="24" height="24" viewBox="0 0 24 24" fill='currentColor'><path d="M20 7H10v6H8V5h6V1H6v6H4c-1.1 0-2 .9-2 2v12c0 1.1.9 2 2 2h16c1.1 0 2-.9 2-2V9c0-1.1-.9-2-2-2"/></svg>

<svg width="24" height="24" viewBox="0 0 24 24" xmlns="http://www.w3.org/2000/svg" fill='currentColor'><path d="M20 7H10V13H8V5H14V1H6V7H4C2.9 7 2 7.9 2 9V21C2 22.1 2.9 23 4 23H20C21.1 23 22 22.1 22 21V9C22 7.9 21.1 7 20 7Z"/></svg>
